X:146
T:Salmon's Leap, The
R:slip jig
C:Randal Bays
Z:Transcribed by Dave Marshall
M:9/8
K:Aminor
e3 edc BAG | EAA ABc Bcd | efe edc BAG | EAc BAG A2A |
Aee edc BAG | EAA ABc Bcd | efe edc BAG | EAc BAG A3 |
Ace aed cBA | GBd gdc BAG | Ace aed cBA | BAG E^FG A3 |
Ace aed cBA | GBd gdc BAG | EAA GBB Acc | Bdd cde def |
